assets/images/payments/payu-dark.svg

<svg width="100" height="60" viewBox="0 0 100 60" version="1.1" xmlns="http://www.w3.org/2000/svg" xmlns:xlink="http://www.w3.org/1999/xlink"><title>PayU-dark</title><desc>Created with Sketch.</desc><g id="Dark-Payment-badges" stroke="none" stroke-width="1" fill="none" fill-rule="evenodd" transform="translate(-450.000000, -1289.000000)"><g id="PayU-dark" transform="translate(450.000000, 1289.000000)"><rect id="Rectangle" fill="#95BF3E" x="0" y="0" width="100" height="60" rx="4"/><path d="M72.7713548,25.8312095 C72.3666427,25.8309941 72.0386084,25.5029597 72.0388238,25.0982477 L72.0399007,21.8599048 L71.7698055,21.8599048 C70.0945258,21.8599048 69.4714113,22.1364617 69.4714113,23.6624782 L69.4714113,27.2333785 C69.4711959,27.2409171 69.4703344,27.2484556 69.4703344,27.2559942 L69.4703344,28.0387103 C69.4699036,28.0658491 69.4681805,28.0910494 69.4681805,28.1190497 L69.4681805,33.108273 C69.4681805,33.7178181 69.3507946,34.2030849 69.1082689,34.5800121 C68.6516486,35.2836813 67.7472387,35.6037463 66.3002692,35.6056848 C64.8539458,35.6037463 63.9497514,35.2838967 63.4929157,34.5808736 C63.2501746,34.2037311 63.1325733,33.7182489 63.1325733,33.108273 L63.1325733,28.1190497 C63.1325733,28.0910494 63.1308502,28.0658491 63.1304194,28.0387103 L63.1304194,27.2559942 C63.1304194,27.2484556 63.1293425,27.2409171 63.1291271,27.2333785 L63.1291271,23.6624782 C63.1291271,22.1364617 62.506228,21.8599048 60.8309483,21.8599048 L60.3034657,21.8599048 C58.6279706,21.8599048 58.0050715,22.1364617 58.0050715,23.6624782 L58.0050715,33.108273 C58.0050715,34.627828 58.3477521,35.9145497 59.0098516,36.9514224 C60.288604,38.9611981 62.7657693,40.0316713 66.287346,40.0316713 C66.2918691,40.0316713 66.2959615,40.0314559 66.3002692,40.0314559 C66.3047923,40.0314559 66.3088847,40.0316713 66.3134078,40.0316713 C69.8349845,40.0316713 72.3119344,38.9611981 73.5909022,36.9514224 C74.2530017,35.9145497 74.5956823,34.627828 74.5956823,33.108273 L74.5956823,25.8318556 L72.7713548,25.8312095" id="Fill-1" fill="#FFF"/><path d="M80.5164542,20.6132451 L77.761009,20.6121682 C77.4603288,20.6121682 77.2167261,20.3683502 77.2169415,20.0678854 L77.2178031,17.2781936 C77.2180184,16.9775134 77.4616211,16.7339107 77.7623013,16.7341261 L80.5179619,16.7349877 C80.8184267,16.7352031 81.0620294,16.9788057 81.061814,17.2794859 L81.0609525,20.0691777 C81.0607371,20.3696425 80.8171344,20.6132451 80.5164542,20.6132451" id="Fill-3" fill="#FFF"/><path d="M76.8445375,16.7343415 L74.9730402,16.7336954 C74.7688534,16.7336954 74.6034362,16.5680628 74.6034362,16.363876 L74.6040824,14.4691169 C74.6042978,14.2651455 74.769715,14.0997283 74.9739018,14.0997283 L76.845399,14.1003745 C77.0495858,14.1003745 77.215003,14.266007 77.215003,14.4701939 L77.2143569,16.3649529 C77.2141415,16.5689243 77.0487243,16.7343415 76.8445375,16.7343415" id="Fill-4" fill="#FFF"/><path d="M29.4647925,27.6070749 C29.4647925,29.8486069 28.8925094,31.0631739 25.8732151,31.0631739 L21.2255954,31.0631739 L21.2255954,25.2783112 C21.2255954,24.4762101 21.5239064,24.1778992 22.3260074,24.1778992 L25.8732151,24.1778992 C28.1479167,24.1778992 29.4647925,24.7389822 29.4647925,27.6070749 L29.4647925,27.6070749 Z M25.8732151,21.856674 L21.8655101,21.856674 C19.7239176,21.856674 18.7688919,22.8116998 18.7688919,24.9532922 L18.7688919,38.7091954 C18.7688919,39.5364967 19.034464,39.8020688 19.8617653,39.8020688 L20.132722,39.8020688 C20.9600233,39.8020688 21.2255954,39.5364967 21.2255954,38.7091954 L21.2255954,33.3574758 L25.8732151,33.3574758 C29.9995983,33.3574758 31.9214961,31.5301328 31.9214961,27.6070749 C31.9214961,23.6838015 29.9995983,21.856674 25.8732151,21.856674 L25.8732151,21.856674 Z" id="Fill-5" fill="#FFF"/><path d="M40.5662669,33.6193863 L40.5662669,35.5050991 C40.5662669,37.0423157 39.996353,37.9322946 37.0830291,37.9322946 C35.1583312,37.9322946 34.2226903,37.2357332 34.2226903,35.8029792 C34.2226903,34.231516 35.1613467,33.6193863 37.5704497,33.6193863 L40.5662669,33.6193863 L40.5662669,33.6193863 Z M37.0830291,25.8012707 C35.4947657,25.8012707 34.4994626,26.0005036 34.1218892,26.075889 C33.4535435,26.2212752 33.1739713,26.4047849 33.1739713,27.1648855 L33.1739713,27.3815647 C33.1739713,27.6794449 33.2181256,27.8857856 33.3126804,28.0309564 C33.4227432,28.2000352 33.600222,28.2857592 33.8401631,28.2857592 C33.9571182,28.2857592 34.092812,28.266159 34.2545676,28.2256662 C34.6364487,28.1302498 35.8566157,27.9329553 37.1913687,27.9329553 C39.5886255,27.9329553 40.5662669,28.5969933 40.5662669,30.2248879 L40.5662669,31.6772421 L37.543311,31.6772421 C33.6570842,31.6772421 31.8471876,32.9880871 31.8471876,35.8029792 C31.8471876,38.5332242 33.7163156,40.0368405 37.1101678,40.0368405 C41.1432885,40.0368405 42.9417696,38.6643949 42.9417696,35.5862999 L42.9417696,30.2248879 C42.9417696,27.2482402 41.0252565,25.8012707 37.0830291,25.8012707 L37.0830291,25.8012707 Z" id="Fill-6" fill="#FFF"/><path d="M56.2339446,26.4424776 C56.0629273,26.2273061 55.7389854,26.1975827 55.4146126,26.1975827 L55.1707946,26.1975827 C54.362232,26.1975827 54.044967,26.4472161 53.8659804,27.2232553 L51.6186329,36.5645875 C51.3379838,37.7125999 50.9442564,37.9226022 50.2696645,37.9226022 C49.4438709,37.9226022 49.1132519,37.7255232 48.7839253,36.5602797 L46.2386976,27.2187322 C46.0280492,26.4362314 45.7172458,26.1975827 44.9082524,26.1975827 L44.6915732,26.1975827 C44.3648312,26.1975827 44.0398122,26.2277368 43.8728874,26.4454931 C43.7057471,26.66368 43.7621785,26.9891297 43.8483332,27.3089793 L46.4206996,36.731297 C46.9031664,38.5345165 47.4769572,40.0271481 49.619842,40.0271481 C50.020031,40.0271481 50.3898504,39.9715783 50.6976383,39.8677618 C50.0478159,41.9119994 49.3863626,42.8138245 47.4364645,43.013919 C47.0407987,43.0468732 46.7836266,43.10352 46.6401789,43.2956451 C46.4915619,43.4948781 46.5253777,43.7800504 46.5785783,44.0352839 L46.6322096,44.2767327 C46.7487339,44.8354465 46.9468899,45.1817887 47.5740968,45.1817887 C47.6400052,45.1817887 47.7108675,45.1783425 47.7868991,45.1716655 C50.6984999,44.9812634 52.2585476,43.4136772 53.1715729,39.7613606 L56.2862836,27.3023023 C56.3601613,26.9826681 56.4047464,26.6572184 56.2339446,26.4424776" id="Fill-7" fill="#FFF"/><path d="M76.4831182,20.1773259 L72.7730779,20.1760336 C72.3683658,20.1758182 72.0403315,20.5038525 72.0401161,20.9083492 L72.0399007,21.4261394 L72.2972881,21.4261394 C73.9727832,21.4261394 74.5956823,21.7026963 74.5956823,23.2287128 L74.5956823,25.3980902 L76.4813951,25.3987364 C76.8861071,25.3989518 77.2141415,25.0709175 77.2143569,24.6662054 L77.2156492,20.9102877 C77.2158646,20.5055756 76.8878302,20.1773259 76.4831182,20.1773259" id="Fill-9" fill="#FFF"/></g></g></svg>

<svg width="100" height="60" xmlns="http://www.w3.org/2000/svg"><g fill="none" fill-rule="evenodd"><rect fill="#95BF3E" width="100" height="60" rx="4"/><path d="M72.771 25.831a.733.733 0 01-.732-.733V21.86h-.27c-1.674 0-2.298.276-2.298 1.802v4.378c-.001.027-.003.052-.003.08v4.99c0 .609-.117 1.094-.36 1.471-.456.704-1.36 1.024-2.808 1.026-1.446-.002-2.35-.322-2.807-1.025-.243-.377-.36-.863-.36-1.473V28.12c0-.028-.002-.053-.003-.08v-4.376c0-1.527-.624-1.803-2.3-1.803h-.527c-1.675 0-2.298.276-2.298 1.802v9.446c0 1.52.343 2.807 1.005 3.843 1.279 2.01 3.756 3.08 7.277 3.08h.026c3.522 0 5.999-1.07 7.278-3.08.662-1.036 1.005-2.323 1.005-3.843v-7.276H72.77m7.746-5.22h-2.755a.544.544 0 01-.544-.545v-2.79a.546.546 0 01.545-.544l2.756.001c.3 0 .544.244.544.544l-.001 2.79c0 .3-.244.544-.545.544m-3.671-3.879h-1.872a.37.37 0 01-.37-.37l.001-1.895a.37.37 0 01.37-.37l1.871.001a.37.37 0 01.37.37v1.895a.37.37 0 01-.37.37m-47.38 10.872c0 2.242-.572 3.456-3.592 3.456h-4.647v-5.785c0-.802.298-1.1 1.1-1.1h3.547c2.275 0 3.592.561 3.592 3.43zm-3.592-5.75h-4.007c-2.142 0-3.097.955-3.097 3.096V38.71c0 .827.265 1.093 1.093 1.093h.27c.828 0 1.094-.266 1.094-1.093v-5.352h4.647c4.127 0 6.048-1.827 6.048-5.75s-1.921-5.75-6.048-5.75zM40.566 33.62v1.885c0 1.537-.57 2.427-3.483 2.427-1.925 0-2.86-.696-2.86-2.129 0-1.571.938-2.184 3.347-2.184h2.996zm-3.483-7.82c-1.588 0-2.584.2-2.961.275-.668.145-.948.329-.948 1.089v.217c0 .297.044.504.139.649.11.169.287.255.527.255.117 0 .253-.02.415-.06.381-.096 1.602-.293 2.936-.293 2.398 0 3.375.664 3.375 2.292v1.452h-3.023c-3.886 0-5.696 1.311-5.696 4.126 0 2.73 1.87 4.234 5.263 4.234 4.033 0 5.832-1.373 5.832-4.45v-5.362c0-2.977-1.917-4.424-5.859-4.424zm19.151.642c-.171-.215-.495-.244-.82-.244h-.243c-.809 0-1.126.25-1.305 1.025l-2.247 9.342c-.281 1.148-.675 1.358-1.35 1.358-.825 0-1.156-.197-1.485-1.363l-2.545-9.341c-.211-.783-.522-1.021-1.33-1.021h-.217c-.327 0-.652.03-.82.247-.166.219-.11.544-.024.864l2.573 9.422c.482 1.804 1.056 3.296 3.199 3.296.4 0 .77-.055 1.078-.16-.65 2.045-1.312 2.947-3.262 3.147-.395.033-.652.09-.796.282-.148.199-.115.484-.061.74l.053.24c.117.56.315.906.942.906.066 0 .137-.004.213-.01 2.911-.19 4.472-1.758 5.385-5.41l3.114-12.46c.074-.32.119-.645-.052-.86m20.249-6.265l-3.71-.001a.733.733 0 00-.733.732v.518h.257c1.676 0 2.299.277 2.299 1.803v2.17h1.885a.733.733 0 00.733-.733l.002-3.756a.733.733 0 00-.733-.733" fill="#FFF"/></g></svg>
